symbols/web/ad_units/materialsymbolsoutlined/ad_units_wght600fill1_24px.svg

<svg xmlns="http://www.w3.org/2000/svg" height="24" width="24"><path d="M8.2 9.2v-2h7.6v2Zm-1 8.6h9.6V6.2H7.2Zm0 5.65q-1.1 0-1.875-.775Q4.55 21.9 4.55 20.8V3.2q0-1.1.775-1.875Q6.1.55 7.2.55h9.6q1.1 0 1.875.775.775.775.775 1.875v17.6q0 1.1-.775 1.875-.775.775-1.875.775Z"/></svg>

<svg xmlns="http://www.w3.org/2000/svg" height="24" width="24"><path d="M8.2 9.2V7.2H15.8V9.2ZM7.2 17.8H16.8V6.2H7.2ZM7.2 23.45Q6.1 23.45 5.325 22.675Q4.55 21.9 4.55 20.8V3.2Q4.55 2.1 5.325 1.325Q6.1 0.55 7.2 0.55H16.8Q17.9 0.55 18.675 1.325Q19.45 2.1 19.45 3.2V20.8Q19.45 21.9 18.675 22.675Q17.9 23.45 16.8 23.45Z"/></svg>
